X:147
B:Svenska låtar Småland
T:Vals efter Johan Magnus Dahl (Sv.L. Sm. 147)
R:Vals
O:Småland
S:efter Johan Magnus Dahl
M:3/4
L:1/8
K:D
d|{de}d>c d>f a2| {ab}a>(^g a)>f d2| A2 A2 ce| e>(d f)d A2| 
{de}d>c d>f a2|{ab}a>(^g a)>f d2| A2 A2 ce| d2 z2 z:|
|:((3f/2g/2f/2|e2) g>e (c>e)| A2 ce g(f| a)>(f d)>(f a)>(f | d)>(f a)>(f d)((3f/2g/2f/2)|
e2 g>e (c>e)| A2 ce (g2| f)>(a g)>(e c)>(e|d2) z2 z:|

